src/assets/images/toolbox/react.svg

<svg
  width="36"
  height="32"
  viewBox="0 0 36 32"
  fill="transparent"
  xmlns="http://www.w3.org/2000/svg">
  <path
    fill="#00D8FF"
    d="M29.5992 10.3718C29.2161 10.2405 28.8297 10.1189 28.4404 10.007C28.5058 9.74004 28.566 9.47633 28.6194 9.21726C29.4967 4.96295 28.9232 1.53558 26.9644 0.407129C25.0864 -0.674679 22.015 0.453351 18.9131 3.15043C18.6074 3.41671 18.3084 3.69067 18.0166 3.97204C17.8212 3.78494 17.6224 3.60147 17.4202 3.42172C14.1692 0.537929 10.9107 -0.677489 8.95402 0.454194C7.07766 1.53937 6.52205 4.76134 7.3118 8.79325C7.39037 9.19257 7.47908 9.58983 7.57786 9.98464C7.11661 10.1156 6.67153 10.255 6.24558 10.4033C2.43408 11.731 0 13.8116 0 15.9697C0 18.1987 2.61309 20.4343 6.58294 21.79C6.90478 21.8994 7.2293 22.0009 7.5562 22.0942C7.45004 22.5194 7.35578 22.9475 7.27355 23.378C6.52064 27.3399 7.10859 30.4858 8.97989 31.564C10.9126 32.6776 14.1566 31.5331 17.3152 28.7745C17.5713 28.5503 17.8218 28.3196 18.0664 28.0829C18.3824 28.3875 18.7069 28.6834 19.0395 28.97C22.0992 31.6003 25.121 32.6624 26.9904 31.5812C28.9214 30.4644 29.549 27.0849 28.7342 22.9734C28.67 22.6513 28.598 22.3307 28.5183 22.0121C28.7461 21.9447 28.9697 21.8753 29.1877 21.803C33.3148 20.437 36 18.2284 36 15.9697C36 13.8037 33.4873 11.7091 29.5992 10.3718ZM28.7041 20.3447C28.5072 20.4098 28.3053 20.4726 28.0994 20.5337C27.6438 19.0926 27.029 17.5604 26.2765 15.9772C26.9945 14.4317 27.5857 12.919 28.0285 11.4874C28.3968 11.5939 28.7542 11.7061 29.0987 11.8246C32.4301 12.9704 34.4621 14.6644 34.4621 15.9697C34.4621 17.36 32.2675 19.165 28.7041 20.3447ZM27.2256 23.2718C27.5858 25.0898 27.6372 26.7336 27.3985 28.0187C27.1842 29.1734 26.7531 29.9432 26.2198 30.2515C25.0854 30.9077 22.6592 30.0549 20.0426 27.8053C19.7333 27.5388 19.4314 27.2638 19.1374 26.9806C20.1518 25.8722 21.1656 24.5837 22.155 23.1526C23.8954 22.9984 25.5396 22.746 27.0307 22.4017C27.1025 22.6901 27.1675 22.9803 27.2256 23.2718ZM12.2732 30.1382C11.1648 30.5292 10.2819 30.5404 9.74827 30.233C8.61272 29.5787 8.14064 27.0528 8.78456 23.6646C8.86111 23.2642 8.94875 22.8661 9.04739 22.4705C10.522 22.7965 12.1542 23.0308 13.8987 23.1722C14.8949 24.5725 15.9379 25.8595 16.989 26.9866C16.7657 27.2026 16.537 27.413 16.3032 27.6177C14.9064 28.8375 13.5068 29.7029 12.2732 30.1382ZM7.08047 20.3361C5.32505 19.7367 3.87534 18.9576 2.88169 18.1075C1.98872 17.3436 1.53802 16.5851 1.53802 15.9697C1.53802 14.66 3.49228 12.9895 6.75183 11.8542C7.14741 11.7165 7.56141 11.5866 7.99102 11.4646C8.44158 12.9286 9.03248 14.4593 9.74559 16.0071C9.0232 17.5778 8.42386 19.1329 7.96894 20.6142C7.67055 20.5288 7.3743 20.4361 7.08047 20.3361ZM8.82113 8.49807C8.14458 5.04373 8.59387 2.43798 9.72464 1.78398C10.929 1.0874 13.5921 2.08056 16.3991 4.57069C16.5822 4.73343 16.7622 4.89948 16.9393 5.06874C15.8933 6.19087 14.8598 7.46839 13.8725 8.86041C12.1794 9.0172 10.5587 9.26896 9.06862 9.60629C8.97682 9.23907 8.89429 8.86945 8.82113 8.49807ZM24.3499 12.3291C23.998 11.7217 23.633 11.122 23.2552 10.5303C24.4038 10.6755 25.5043 10.8681 26.5378 11.1035C26.2275 12.0971 25.8408 13.1358 25.3856 14.2007C25.0529 13.57 24.7076 12.946 24.3499 12.3291ZM18.0173 6.16684C18.7266 6.93465 19.437 7.7918 20.1358 8.72188C18.7183 8.655 17.2984 8.65471 15.8809 8.72104C16.5804 7.79953 17.2969 6.9435 18.0173 6.16684ZM11.644 12.3396C11.2908 12.9516 10.952 13.5717 10.6277 14.1995C10.18 13.1383 9.79678 12.0949 9.48389 11.0872C10.511 10.8577 11.6063 10.67 12.7477 10.5275C12.3656 11.1228 11.9977 11.7271 11.644 12.3396ZM12.7804 21.5212C11.6013 21.3897 10.4895 21.2117 9.46266 20.9883C9.78047 19.9627 10.1721 18.8971 10.6296 17.8131C10.9551 18.4414 11.2954 19.0619 11.6501 19.6741C12.0149 20.3035 12.3926 20.92 12.7804 21.5212ZM18.0598 25.8808C17.3308 25.0951 16.6037 24.2259 15.8937 23.291C16.5831 23.318 17.2858 23.3318 18 23.3318C18.7338 23.3318 19.4591 23.3153 20.1731 23.2836C19.4721 24.2353 18.7643 25.1058 18.0598 25.8808ZM25.4001 17.7578C25.8813 18.8536 26.2869 19.9137 26.6089 20.9217C25.5652 21.1597 24.4382 21.3514 23.2508 21.4937C23.6313 20.891 23.9998 20.2809 24.356 19.6636C24.7181 19.0361 25.0663 18.4007 25.4001 17.7578ZM23.0238 18.8959C22.4785 19.8424 21.9025 20.7708 21.2968 21.6798C20.1996 21.7575 19.1 21.796 18 21.7955C16.8796 21.7955 15.7899 21.7606 14.7406 21.6926C14.1191 20.7857 13.5321 19.8556 12.981 18.9044C12.4324 17.9581 11.9202 16.9915 11.445 16.0064C11.9189 15.0211 12.4298 14.0539 12.9765 13.107C13.5229 12.1598 14.1051 11.2338 14.7219 10.3308C15.7925 10.2499 16.8903 10.2077 17.9999 10.2077C19.1145 10.2077 20.2139 10.2503 21.2842 10.3318C21.8948 11.2335 22.4733 12.1564 23.0188 13.0988C23.5673 14.0437 24.0848 15.0061 24.5707 15.9846C24.0898 16.9731 23.5739 17.9441 23.0238 18.8959ZM26.1963 1.73817C27.4018 2.43278 27.8706 5.23382 27.1132 8.90705C27.0648 9.1414 27.0105 9.3801 26.9515 9.62217C25.4578 9.27767 23.8359 9.02155 22.1379 8.86237C21.1487 7.45504 20.1237 6.17555 19.0948 5.0679C19.3644 4.80819 19.6405 4.55522 19.9228 4.30922C22.5806 1.99851 25.0646 1.08614 26.1963 1.73817ZM18 12.758C19.7754 12.758 21.2147 14.196 21.2147 15.9697C21.2147 17.7435 19.7754 19.1814 18 19.1814C16.2246 19.1814 14.7853 17.7435 14.7853 15.9697C14.7853 14.196 16.2246 12.758 18 12.758Z"
  />
</svg>

<svg xmlns="http://www.w3.org/2000/svg" width="36" height="32" fill="transparent" xmlns:v="https://vecta.io/nano">
  <path fill="#00d8ff"
    d="M29.599 10.372l-1.159-.365.179-.79c.877-4.254.304-7.682-1.655-8.81-1.878-1.082-4.949.046-8.051 2.743l-.896.822-.596-.55C14.169.538 10.911-.677 8.954.454 7.078 1.539 6.522 4.761 7.312 8.793l.266 1.191-1.332.419C2.434 11.731 0 13.812 0 15.97c0 2.229 2.613 4.465 6.583 5.82l.973.304-.283 1.284c-.753 3.962-.165 7.108 1.706 8.186 1.933 1.114 5.177-.031 8.335-2.79l.751-.692.973.887c3.06 2.63 6.081 3.692 7.951 2.611 1.931-1.117 2.559-4.496 1.744-8.608l-.216-.961.669-.209C33.315 20.437 36 18.228 36 15.97c0-2.166-2.513-4.261-6.401-5.598zm-.895 9.973l-.605.189c-.456-1.441-1.07-2.973-1.823-4.556.718-1.546 1.309-3.058 1.752-4.49l1.07.337c3.331 1.146 5.363 2.84 5.363 4.145 0 1.39-2.195 3.195-5.758 4.375zm-1.479 2.927c.36 1.818.412 3.462.173 4.747-.214 1.155-.645 1.925-1.179 2.233-1.134.656-3.561-.197-6.177-2.446l-.905-.825c1.014-1.108 2.028-2.397 3.018-3.828 1.74-.154 3.385-.407 4.876-.751l.195.87zm-14.952 6.866c-1.108.391-1.991.402-2.525.095-1.136-.654-1.608-3.18-.964-6.568l.263-1.194c1.475.326 3.107.56 4.851.702a37.44 37.44 0 0 0 3.09 3.814l-.686.631c-1.397 1.22-2.796 2.085-4.03 2.521zM7.08 20.336c-1.755-.599-3.205-1.378-4.199-2.229-.893-.764-1.344-1.522-1.344-2.138 0-1.31 1.954-2.98 5.214-4.115l1.239-.39c.451 1.464 1.041 2.995 1.755 4.543-.722 1.571-1.322 3.126-1.777 4.607l-.888-.278zM8.821 8.498c-.677-3.454-.227-6.06.904-6.714 1.204-.697 3.867.297 6.674 2.787l.54.498c-1.046 1.122-2.079 2.4-3.067 3.792-1.693.157-3.314.409-4.804.746l-.247-1.108zm15.529 3.831l-1.095-1.799 3.283.573c-.31.994-.697 2.032-1.152 3.097l-1.036-1.872zm-6.333-6.162c.709.768 1.42 1.625 2.119 2.555l-4.255-.001 2.136-2.554zm-6.373 6.173l-1.016 1.86-1.144-3.112 3.264-.56-1.104 1.812zm1.136 9.182l-3.318-.533c.318-1.026.709-2.091 1.167-3.175l1.021 1.861 1.13 1.847zm5.279 4.36c-.729-.786-1.456-1.655-2.166-2.59l2.106.041 2.173-.048-2.113 2.597zm7.34-8.123l1.209 3.164c-1.044.238-2.171.43-3.358.572l1.105-1.83 1.044-1.906zm-2.376 1.138l-1.727 2.784-3.297.116a50.49 50.49 0 0 1-3.259-.103l-1.76-2.788-1.536-2.898 1.531-2.899 1.745-2.776L18 10.208l3.284.124 1.735 2.767 1.552 2.886-1.547 2.911zm3.172-17.158c1.206.695 1.674 3.496.917 7.169l-.162.715c-1.494-.344-3.116-.601-4.814-.76-.989-1.407-2.014-2.687-3.043-3.794l.828-.759c2.658-2.311 5.142-3.223 6.274-2.571zM18 12.758c1.775 0 3.215 1.438 3.215 3.212S19.775 19.181 18 19.181s-3.215-1.438-3.215-3.212 1.439-3.212 3.215-3.212z" />
</svg>
